X:1
T:I Know Not the Hour
T:I Know Not the Hour
T:James McGranahan
T:Philip Paul Bliss, 1873
T:Public Domain Courtesy of the Cyber Hymnal™
T:Public Domain Courtesy of the Cyber Hymnal™
C:James McGranahan
Z:Public Domain
Z:Courtesy of the Cyber Hymnal™
%%score ( 1 2 ) ( 3 4 )
L:1/8
Q:1/4=85
M:6/8
K:Bb
V:1 treble 
V:2 treble 
V:3 bass 
V:4 bass 
V:1
 [DF] | [DF][^C=E][DF] [Fd][_E=c][DB] | ([GB][FA])[EG] [DF]2 [DF] | %3
w: 1.~I|know not the hour when my|Lord * will come To|
w: 2.~I|know not the song that the|an- * gels sing, I|
w: 3.~I|know not the form of my|man- * sion fair, I|
 [DF][CE][=B,D] [CE]2 [EG]/[EG]/ | ([EG][DF])[^C=E] [DF]2 [DF]/[DF]/ | %5
w: take me a- way to His|own * dear home; But I|
w: know not the sound of the|harps’ * glad ring; But I|
w: know not the name that I|then * shall bear; But I|
 [DF][^C=E][DF] [Fd][_E=c][DB] | [DB][Ec][Fd] !fermata![Ge]2 [Ge] | [Fd][Fd][Fd] [Fd][Fc][DB] | %8
w: know that His pre- sence will|light- en the gloom, And|that will be glo- ry for|
w: know there’ll be men- tion of|Je- sus our king, And|that will be mu- sic for|
w: know that my Sav- ior will|wel- come me there, And|that will be Heav- en for|
 [Ec]3- [Ec]2 [EF] | [DB][DB][DB] [DB][Ec][Fd] | [EG]3- [EG]2 [EG] | [=Ec][Ec][Ec] [Ec][EB][EG] | %12
w: me. * And|that will be glo- ry for|me, * Oh,|that will be glo- ry for|
w: me. * And|that will be mu- sic for|me, * Oh,|that will be mu- sic for|
w: me. * And|that will be Heav- en for|me, * Oh,|that will be Heav- en for|
 F3- !fermata![EF]2 [EF]/[EF]/ | [DF][^C=E][DF] [Fd][_E=c][DB] | [DB][Ec][Fd] !fermata![Ge]2 [Ge] | %15
w: me! But I know|* that His pre- sence will|light- en the gloom, And|
w: me! But I know|* there’ll be men- tion of|Je- sus our king, And|
w: me. But I know|* that my Sav- ior will|wel- come me there, And|
 [Fd][Fd][Fd] [Ff][Fe][Ec] | [DB]3- [DB]2 |] %17
w: that will be glo- ry for|me. *|
w: that will be mu- sic for|me. *|
w: that will be Heav- en for|me. *|
V:2
 x | x6 | x6 | x6 | x6 | x6 | x6 | x6 | x6 | x6 | x6 | x6 | FCD x3 | x6 | x6 | x6 | x5 |] %17
V:3
 z | z6 | z6 | z6 | z6 | z6 | z6 | z6 | z3 z2 z | z2 z3 [B,,B,] | %10
 ([E,B,][E,B,][E,B,][E,B,][E,B,])[E,B,] | [C,C][C,G,][C,G,] [C,G,][C,G,][C,B,] | %12
 (A,A,B, !fermata![F,C]2) [F,C]/[F,C]/ | [B,,B,][B,,B,][B,,B,] [B,,B,][B,,B,][B,,B,] | %14
 [B,,B,][B,,B,][B,,B,] !fermata![E,B,]2 [E,B,] | [F,B,][F,B,][F,B,] [F,A,][F,A,][F,A,] | %16
 [B,,B,]3- [B,,B,]2 |] %17
V:4
 x | x6 | x6 | x6 | x6 | x6 | x6 | x6 | x6 | x6 | x6 | x6 | F,3- x3 | x6 | x6 | x6 | x5 |] %17

